X:1
T:Sonata for viola da gamba and harpsichord in G major
T:BWV 1027
T:J. S. Bach
%%score 1 { 2 | 3 }
L:1/8
Q:1/4=66
M:12/8
K:G
V:1 tenor nm="ヴィオラ ダ ガンバ"
V:2 treble nm="ハープシーコード"
V:3 bass 
V:1
 B,D/C/B,/A,/ B,G,A,/B,/4C/4{C} B,D/C/B,/A,/ B,/G,/DE/F/4G/4 | %1
 FG/F/E/D/ GDD/E/4=F/4{F} EF/E/D/C/ DGB,/C/4D/4 | %2
 CD/C/B,/A,/ B,/A,/G,/A,/B,/C/ D/C/E/D/C/B,/ A,/G,/F,/E,/D, | A12- | A6- A G2- G F2- | %5
 F E2- EAT^C D D2- D/C/E/D/C/B,/ | ^A,TB,^C- C/B,/=A,/G,/A,/F,/ ^G,T^A,B,- B,/A,/C/B,/D/C/ | %7
 ED^C B,/D/C/^A,/B,/D/ G3- G/F/F/^E/E/F/ | F>EE/D/ G/F/E/D/T^C/B,/ B,F/E/D/C/ B,FF/G/4A/4 | %9
 GTFE- EG/F/E/D/{D} ^CE/D/C/B,/ A,EE/F/4G/4 | FTED- DF/E/D/^C/ B,/A,/G,/F,/G,- G,/E/D/C/B,/A,/ | %11
 G/F/E/D/B- BAG F/G/AE F/E/G/F/E/F/ | D12- | D6- D C2- C B,2- | %14
 B, A,2- A,DTF, G,3- G,/B,/A,/C/B,/A,/ | %15
 B,/E/D/C/B,/A,/ B,G,A,/B,/4C/4{C} B,D/C/B,/A,/ B,/G,/DE/F/4G/4 | %16
 FG/F/E/D/ GDD/E/4=F/4 EF/E/D/C/ DGB,/C/4D/4 | CD/C/B,/A,/ B,/A,/G,/A,/B,/C/ D/C/E/D/C/B,/ A, A2- | %18
 A/G/B/A/G/F/ GTAB- B/A/G/F/G/E/ F3- | %19
 F/E/G/F/A/^G/{B} !trill(!T^A2 =A A/c/B/=G/A/F/ !trill(!TG2- G/-F/4!trill)!G/4 | %20
 F/E/E/^D/D/E/ E/F<TDE/ E2 z B,/A,/G,/F,/E, | z z E/D/ C/B,/A, z z2 z A,/G,/F,/E,/D, | %22
 z z D/C/ B,/A,/G, z G/=F/E/D/C/B,/{B,} C>AG/^F/ | %23
 E/D/C/B,/A,/G,/ F,/G,/G,/A,/A,- A,/F,/ G,2- G,/A,/D,TF, | %24
 G,/B,/D/C/B,/A,/ B,G,A,/B,/4C/4{C} B,D/C/B,/A,/ B,/G,/A,/C/B,/D/ | !trill(!T^C6 !trill)!=C6- | %26
 C2 z z2 z T_B,6 | A,12 | z12 ||[M:3/4][Q:1/4=120] z6 | z6 | z6 | z6 | z2 z A, D/E/F | %34
 TFE E^C/D/ E/F/G | TGF FA G/F/E/D/ | Bd/^c/ BA G/F/E/D/ | E/D/^C/B,/ A,2 D2 | D6- | D4 G2- | %40
 G/G/F/G/ E/G/D/G/ ^C/G/B,/G/ | A,G F/E/F/G/ TE>D | D4 z D- | D/B,/^C/D/ E/F/G A,TC | D2 z2 z2 | %45
 !trill(!TF6 | G2 z D, G,/A,/B, | TB,A, A,F,/G,/ A,/B,/C | TCB, B,D C/B,/A,/G,/ | %49
 =F,A,/G,/ F,D/C/ B,/A,/G,/F,/ | E,2 z A G/F/E/D/ | G2 z G/F/ E/D/C/B,/ | C2 z2 z2 | %53
 z2 z2[K:bass] D2- | D/D/C/B,/ C/D/E/C/ F,/B,/A,/G,/ | A,/B,/C/A,/ D,/G,/F,/E,/ F,/G,/A,/F,/ | %56
 B,, z z2 z G,- | G,/E,/F,/G,/ A,/B,/C D,F, | G,/D,/E,/F,/ G,/A,/B,/C/ DB, | %59
 G,E, A,/B,/C/D/ E/D/C/B,/ | A,/C/B,/A,/ G,/F,/G,/A,/ TF,>G, | G,2 z2 z2 | z6 | %63
 z2 z[K:tenor] E B,/A,/G, | G,A, A,C/B,/ A,/G,/F, | F,G, G,2 z B, | EF/G/ A/B/A/G/ F/E/^D/^C/ | %67
 B,2 z/ E/D/E/ C/E/A,/E/ | A,/C/B,/C/ A,/C/G,/C/ F,/C/E,/C/ | ^D,F, B,2- B,/A,/G,/F,/ | %70
 E,/F,/G,/A,/ B,/A,/B,/C/ F,T^D | E6- | E6- | E/G/F/G/ E/G/D/G/ ^C/G/B,/G/ | %74
 ^C/E/D/E/ C/E/B,/E/ ^A,/E/C/E/ | F,2- F,/D/^C/B,/ T^A,>B, | B,2 z G D/C/B, | B,C CE/D/ C/B,/A, | %78
 A,B, B,4- | B,2 T^C4 | D2 z2 F2- | F/F/E/^D/ E/F/G/E/ A,2- | A,/E/D/^C/ D/E/F/D/ G,2- | %83
 G,/D/^C/B,/ C/D/E/C/ F,/B,/A,/G,/ | A,/B,/^C/A,/ D,/G,/F,/E,/ F,/G,/A,/F,/ | %85
 B,/^C/D- D/F/E- E/F/G- | G/B/A- A/F/G- G/d/^c | d^c/B/ A/G/F/E/ D/E/F | TFE E^C/D/ E/F/G | %89
 TGF FA G/F/E/D/ | Bd/^c/ BA G/F/E/D/ | ^C/B,/A,/E/{G,} F,>E, TE,>D, | %92
 D,/E,/F,/G,/ A,/B,/C/D/ E/F/G | TGF FD/E/ F/G/A | TAG G4- | G2 F2- F/G/A/F/ | D=F/E/ F4- | %97
 F/E/D/C/ D/C/B,/C/ D/E/=F/D/ | ^CE/^D/ E4- | E/G/F/E/ ^D/^C/B,/C/ D/E/F/D/ | B,D/^C/ D4- | %101
 D/F/E/D/ ^C/B,/A,/B,/ C/D/E/C/ | A,C/B,/ C4- | C/E/D/C/ B,/A,/G,/A,/ B,/C/D/B,/ | %104
 G,2- G,/A,/B,/C/ D/E/F/G/ | A/G/F/E/ D2 z2 | z2 z[K:bass] D, G,/A,/B, | TB,A, A,F,/G,/ A,/B,/C | %108
 TCB, B,D C/B,/A,/G,/ | EG/F/ ED C/B,/A,/G,/ | A,/G,/F,/E,/ D,2 z[K:tenor] D- | %111
 D/B,/^C/D/ E/F/G A,TC | D/A,/B,/^C/ D/E/F/G/ AF | D6- |[K:bass] D/D/C/D/ B,/D/A,/D/ ^G,/D/B,/D/ | %115
 C6- | C/C/B,/D/ A,/C/G,/C/ F,/C/A,/C/ | B,6- | B,3 B,/A,/ B,B, | A,3 A,/G,/ A,A, | %120
 G,3 C/B,/ A,G, | F,C/B,/ A,/G,/F,/E,/ .D,2 | z6 | z6 | z2 z D, G,/A,/B, | TB,A, A,F,/G,/ A,/B,/C | %126
 TCB, B,D C/B,/A,/G,/ | EG/F/ ED C/B,/A,/G,/ | A,D/C/ DD DD | DC/B,/ CC CC | CB,/A,/ B,2 z2 | %131
 z2 z2 E2- | E/E/D/C/ D/E/F/D/ G,/C/B,/A,/ | B,/C/D/B,/ E,/A,/G,/F,/ G,/A,/B,/G,/ | %134
 C,C z D, G,/A,/B, | TB,A, A,F,/G,/ A,/B,/C | TCB, B,D C/B,/A,/G,/ | EG/F/ ED C/B,/A,/G,/ | %138
 F,/D,/E,/F,/ G,/A,/B,/C/ DB, | G,E, A,/B,/C/D/ E/D/C/B,/ | A,/C/B,/A,/ G,/F,/G,/A,/ F,>G, | %141
 !fermata!G,6 | z6 |[M:4/4][K:tenor][Q:1/4=76] z4 E/^G/A/c/ E/G/A/c/ | %144
 F/E/F/A/ F/E/F/A/ B,/^D/E/G/ B,/D/E/G/ | ^G,B,G,E, G,/A,/B,/^E/ ^G/A/B/G/ | %146
 A^cAF ^D,/E,/F,/^B,/ ^D/E/F/^G/ | ^E^GFA FAFA | %148
[K:bass] A,/C/B,/F,/ G,/^D,/E,/G,/ ^B,/D/E/G/ B,/D/E/G/ | ^CED=F- F/E/F/D/ TE>D | %150
 A,/^C/D/F/ A,/C/D/F/ B,/A,/B,/D/ B,/A,/B,/D/ | G,/B,/^C/E/ G,/B,/C/E/ F,/E,/F,/A,/ F,/E,/F,/A,/ | %152
 D,/E,/F,/A,/ D/E/F/A/ ^DFDB, | E,/F,/G,/B,/ E/F/G/E/ ^A,^CA,F, | %154
 A,/C/B,/F,/ G,/^D,/E,/G,/ ^A,>B, TF,>E, | E,8- | E,8- | E,8- | E,8- | %159
 E,G{F} E{D}^C{B,} ^A,3/2B,/8A,/8^G,/8A,/8 TA,3/2G,/4A,/4 | !fermata!B,8 |[M:2/2][Q:1/4=180] z8 | %162
 z8 | z8 | z8 | z8 | z8 | z8 | z8 | z4 z2 A,G, | F,2 D,2 D2 A,2 | TF,2 E,D, A,2 A,2 | %172
 A,2 G,F, G,A, B,2 | B,2 E,2 E,2 G,F, | G,2 F,E, F,G, A,2 | A,2 D,2 D,2 D2- | D2 C4 B,2- | %177
 B,2 A,G, F,D,E,F, | G,D,E,F, G,A,B,C | DEDC B,A,G,F, | E,2 ED CB,A,G, | F,E,D,E, F,G,A,F, | %182
 D2 D,2 D,2 F,2 | G,4 z2 B,2 | A,B,^CD G,A,B,C | F,2[K:tenor] F4 E2- | E2 DE T^C3 D | %187
 D2 A,2 D2 F2 | A2 D2 F2 A2 | F2 ^D2 B,2 D2 | F2 A2 F2 ^D2 |[K:bass] E,G,F,E, B,G,F,E, | %192
 D,=F,E,D, B,F,E,D, | DCB,A, ^G,F,E,F, | ^G,A,B,C DCDB, | CDE=F A,B,CD | B,CDE ^G,A,B,C | %197
 A,B,CD F,^G,A,B, | ^G,A,B,E, G,B, E2 | TE8- | E8- | E4 D4- | DEDC B,A,^G,B, | %203
 A,2[K:tenor] ED C2 A,2 | A2 E2 C2{B,} A,2 | =FEFG FEDC | B,CDC B,A,G,=F, | EDE=F EDCB, | %208
 A,B,CD EF^GE | A3 B ^G3 A | A2 E2 B4 | A6 GF | EB, E4 D2- | D2 ^CB, ^A,2 F,2 | D4 ^C4 | %215
 B,6 A,^G, | F,2 F4 E2- | E2 D4 ^C2- | C2 B,2 E4- | ED^CD EGFE | D2 B,2 B2 F2 | D2{^C} B,2 F2 F2 | %222
 F2 E^D EF G2 | G2 ^C2 C2 E2- | E2 D^C DE F2 | F2 B,2 B,2 E2 | D3 ^C TC3 B, | B,4 z2 F2 | %228
 D2 B,2 z2 A2 | F2 ^D2 z2 c2 | A2 F2 ^D3 E | E2 B,2 G,2 E,2 | z2 D2 B,2 ^G,2 | z2 =F2 D2 B,2 | %234
 ^G,A,B,C D=FED | ^C2 z2 z2 E2 | ^C2 A,2 z2 G2 | E2 ^C2 z2 _B2 | G2 E2 ^C3 D | %239
 D2[K:bass] A,2 F,2 D,2 | z2 C2 A,2 F,2 | z2 E2 C2 A,2 | F,G,A,B, C2 F,2 | G,D,E,F, G,A,B,C | %244
 DEDC B,A,G,F, | E,2 ED CB,A,G, | F,E,D,E, F,G,A,F, | D2 D,2 D,2 F,2 | G,4 z4 | z8 | z4 z2 G,=F, | %251
 E,2 C,2 C2 G,2 | E,2 D,C, G,2 G,2 | G,2 =F,E, F,G, A,2 | A,2 D,2 D,2 =F,2- | F,2 E,D, E,=F, G,2 | %256
 G,2 C,2 C,2 C2- | C2 B,4 A,2- | A,2 G,=F, E,D,E,^F, | G,F,G,A, B,CDE | D[K:tenor]GFE DCB,A, | %261
 G,B,CD EFGE | AGFG AGFE | FAGF EDCD | B,A,B,^C DEFG | ^C2 A2 B,2 G2 | A,^CB,A, G,2 G2 | %267
{G} F3 E TE3 D | D2 A,2 D2 F2 | A2 F2 D2 A,2 | F,2[K:bass] A,2 D,E,F,G, | A,B,CB, A,G,A,F, | %272
 G,B,A,G, DB,A,G, | =F,A,G,F, DA,G,F, | E,^G,F,E, DCB,A, | ^G,A,B,C DCDB, | C2[K:tenor] c4 B2- | %277
 B2 AG F2 D2 | B4 A4 | G6 FE | D2 d4 c2- | c2 BA ^G2 E2 | c4 B4 | A6 GF | E^D E4 =D2- | %285
 D2 C4[K:bass] B,A, | G,F,E,F, G,B,A,G, | F,G,A,F, D,2 D2 | D8- | D8- | D8- | D4- DCB,A, | %292
 B,CDE G,A,B,C | A,B,CD F,G,A,B, | G,A,B,C E,F,G,A, | F,4- F,D,E,F, | G,B,DC B,G,F,G, | %297
[K:tenor] G2 D2 B,2{A,} G,2 | EDE=F EDCB, | A,B,CB, A,G,F,E, | DCDE DCB,A, | G,A,B,C DEFD | %302
 G3 A TF3 G | !fermata!G8 |] %304
V:2
"^Adagio" Td12- | d6- d c2- c B2- | B A2- AdF G3- G/B/A/G/F/E/ | %3
 F/E/A/G/F/E/ FDE/F/4G/4 FA/G/F/E/ F/D/AB/^c/4d/4 | ^cd/c/B/A/ dAA/B/4=c/4 Bc/B/A/G/ AdF/G/4A/4 | %5
 GA/G/F/E/ F/E/D/E/F/G/ A/G/B/A/G/F/ E z e- | e/d/f/e/d/^c/ d!turn!ef- f/e/d/c/d/B/ !trill(!Tc3- | %7
 c/B/d/^c/e/^d/ T^e2- e- e/g/f/=d/=e/c/ !trill(!Td2- d/c/4!trill)!d/4 | %8
 ^c/B/B/^A/A/B/ B/c<PAB/ B2 z f/e/d/c/B | z z B/A/ G/F/E z z2 z e/d/^c/B/A | %10
 z2 A/G/ F/E/.D z d/c/B/A/G/F/ G>ed/^c/ | B/A/g/f/e/d/ ^c/d/d/e/e- e/c/ d2- d/e/APc | %12
 FA/G/F/E/ FDA/B/4c/4{c} Bd/c/B/A/ B/G/de/f/4g/4 |{g} fg/f/e/d/ gdd/e/4=f/4 ef/e/d/c/ dgB/c/4d/4 | %14
 cd/c/B/A/ B/A/G/A/B/c/ d/c/e/d/c/B/ A/G/F/E/D | Td12- | d6- d c2- c B2- | %17
 B A2- AdF G g2- g/f/a/g/f/e/ | ^d!turn!ef- f/e/=d/c/d/B/ ^c!turn!^de- e/d/f/e/g/f/ | %19
 agf e/g/f/^d/e/g/ Pc'3- c'/b/b/^a/a/b/ | b>aa/g/ c'/b/a/g/Pf/e/ eB/A/G/F/ EBB/c/4d/4 | %21
 cPBA- Ac/B/A/G/ FA/G/F/E/ DAA/B/4c/4 | BAG- Gb/a/g/=f/ e/d/c/B/c- c/a/g/^f/e/d/ | %23
 c/B/A/G/e- edc B/c/dA B/A/c/B/A/B/ | TG12- | G_B/A/G/F/ GEF/G/4A/4 GB/A/G/F/ G/=B/c/_e/_A/G/ | %26
 F2 z z2 z Pg6 | f12 | z12 ||[M:3/4]"^Allegro ma non presto" z2 z D G/A/B | PBA AF/G/ A/B/c | %31
 TcB Bd c/B/A/G/ | eg/f/ ed c/B/A/G/ | A/G/F/E/ D2 z d- | d/B/^c/d/ e/f/g A!turn!c | %35
 d/A/B/^c/ d/e/f/g/ af | dB e/f/g/a/ bB | ^cA d/e/f/g/ a/=c/B/A/ | B/d/c/d/ B/d/A/d/ G/d/F/d/ | %39
 G/B/A/B/ G/B/F/B/ E/B/D/B/ | ^CA, A4- | A/A/B/^c/ d/c/d/e/ Pc>d | d/D/E/F/ G/A/B/^c/ d/e/f | %43
 Pfe e^c/d/ e/f/g | Pgf fa g/f/e/d/ | ce/d/ ca/g/ f/e/d/c/ | B/A/G/F/ G/A/B/c/ dg- | %47
 g/e/f/g/ a/b/c' d!turn!f | g2 z2 z2 | z2 b4- | b/b/a/^g/ a/b/c'/a/ d2- | d/a/g/f/ g/a/b/g/ c2- | %52
 c/g/f/e/ f/g/a/f/ B/e/d/c/ | d/e/f/d/ G/c/B/A/ B/c/d/B/ | E/F/G- G/B/A- A/B/c- | %55
 c/e/d- d/f/e- e/g/f | gf/e/ d/c/B/A/ G/A/B | PBA AF/G/ A/B/c | TcB Bd c/B/A/G/ | %59
 eg/f/ ed c/B/A/G/ | f/e/d/a/{c} B>A PA>G | G2 z g d/c/B | Bc ce/d/ c/B/A | AB B2 Pe2- | %64
 e^d/e/ fd B2- | B/c/B/A/ B/^d/e/f/ ge | ^c/B/A/B/ c/e/f/g/ af |{e} ^d^c/B/ Te4- | e4- eE | %69
 A2- A/c/B/A/ G/F/E/F/ | G/A/B/^c/ ^d/B/e e/4f/4g/f/e/ | e/g/f/g/ e/g/d/g/ ^c/g/B/g/ | %72
 ^c/e/d/e/ c/e/B/e/ ^A/e/B/e/ |{B} ^A3 B ^cd | Te6- | e/^A/B/^c/ d/e/f/g/ Pc>B | B2 z2 z2 | z6 | %78
 z2 z d A/G/F | FG GB/A/ G/F/E | EF F/A/B/^c/ d/e/f/d/ |{^c} B2 z e d/c/B/A/ | %82
 Md2 z d/^c/ B/A/G/F/ | Gg z2 z2 | z2 z2 a2- | a/a/g/f/ g/a/b/g/ ^c/f/e/d/ | %86
 e/f/g/e/ A/d/^c/B/ c/d/e/c/ | F/A/G z2 z d- | d/B/^c/d/ e/f/g A!turn!c | d/A/B/^c/ d/e/f/g/ af | %90
 dB e/f/g/a/ b/a/g/f/ | e/g/f/e/ d/^c/d/e/ Pc>d | Td6- | d6- | d2- d/D/E/F/ G/A/B | %95
 PBA AF/G/ A/B/c | PcB B/A/G/A/ B/c/d/B/ | GB/A/ B4- | B/E/F/G/ A/G/F/G/ A/B/c/A/ | FA/G/ A4- | %100
 A/c/B/A/ ^G/F/E/F/ G/A/B/G/ | EG/F/ G4- | G/B/A/G/ F/E/D/E/ F/G/A/F/ | D=F/E/ F4- | %104
 FE/D/ E/^F/G/A/ B/c/d/e/ | F/E/D/E/ F/G/A/B/ c/e/d/c/ | B/c/d/B/{A} G2 z g- | %107
 g/e/f/g/ a/b/c' d!turn!f | g/D/E/F/ G/A/B/c/ dB | GE A/B/c/d/ e/f/g- | g/b/a/g/ f/e/d/^c/ d/e/f | %111
 Pfe e^c/d/ e/f/g | Pgf fa g/f/e/d/ | bd'/c'/ ba g/f/e/d/ | Te6- | e/e/d/e/ c/e/B/e/ A/e/c/e/ | %116
 Td6- | d/d/c/d/ B/d/A/d/ G/d/B/d/ | cc/B/ cc cc | cc/B/ cc cc | cc/B/ cc cc | c/B/A/G/ F/E/D z2 | %122
 z2 z D G/A/B | PBA AF/G/ A/B/c | PcB Bd c/B/A/G/ | eg/f/ ed c/B/A/G/ | F/E/D/F/ F/D/F/B/ d2- | %127
 dE c4- | c/c/B/A/ B/c/d/B/ E2- | E/B/A/G/ A/B/c/A/ D2- | D/a/g/f/ g/a/b/g/ c/=f/e/d/ | %131
 e/f/g/e/ A/d/c/B/ c/d/e/c/ | F/G/A- A/c/B- B/c/d- | d/=f/e- e/c/d- d/a/g- | %134
 g/b/a/g/ f/e/d/c/ B/A/G/B/ | E-E/4F/4E/4F/4 !trill(!TF3 E/!trill)!F/ | G2 z D G/A/B | %137
 TBA AF/G/ A/B/c | TcB Bd c/B/A/G/ | eg/f/ ed c/B/A/G/ | f/e/d/a/{c} B>A !turn!A>G | !fermata!G6 | %142
 z6 |[M:4/4]"^Andante" B/^d/e/g/ B/d/e/g/ c/B/c/e/ c/B/c/e/ | %144
 A/c/^d/f/ A/c/d/f/ G/F/G/B/ G/F/G/B/ | E/F/^G/B/ e/f/^g/b/ ^ege^c | F/^G/A/^c/ f/^g/a/f/ ^B^dBG | %147
 B/d/^c/^G/ A/^E/F/A/ D/=E/F/A/ d/e/f/A/ | ^DFEG EGEG- | G/_B/A/E/ =F/A/^c/d/ !turn!^g>a Tc>d | %150
 d2 z2 d/f/g/b/ d/f/g/b/ | e/d/e/g/ e/d/e/g/ A/^c/d/f/ A/c/d/f/ | FAFD F/G/A/^d/ f/g/a/f/ | %153
 gbge E/^D/E/^A/ ^c/^d/e/g/ | =f^d e2- e/F/G/e/ Td>e | ^B/^d/e/a/ B/d/e/a/ =B/d/e/g/ B/d/e/g/ | %156
 A/^d/e/f/ A/d/e/f/ G/d/e/b/ G/d/e/b/ | F/^d/e/c'/ F/d/e/c'/ G/d/e/b/ B/d/e/b/ | %158
 ^G/e/d/b/ B/e/d/^g/ c/^d/e/a/ B/d/e/=g/ | ^A/^d/e/g/ B/d/e/g/ ^c/d/e/g/ f/e/d/e/ | !fermata!^d8 | %161
[M:2/2]"^Allegro Moderato" z4 z2 dc | B2 G2 g2 d2 | B2 AG d2 d2 | d2 cB cd e2 | e2 A2 A2 c2- | %166
 c2 BA Bc d2 | d2 G2 G2 g2- |{/a} g2 f4 e2- | e2 d^c BABc | dAB^c defg | abag fed^c | B2 ba gfed | %173
 ^cBAB cdec | a2 A2 A2 !turn!^c2 | d4 z2 f2 | efga defg | c6 BA | GFGA Bcde | dgfe dcBA | %180
 GBcd efge | agfg agfe | fagf edcd | BABc defg | ^c2 a2 B2 g2 | A^cBA G2 g2 | f3 e Pe3 d | %187
 dfed afed | cedc aedc | B^d^cB agfe | ^defg agaf | g2 B2 e2 g2 | b2 ^g2 e2 B2 | ^G2 B2 EFGA | %194
 Bcdc BAB^G | Te8- | e8- | e8- | e4- edcB | cde=f ABcd | Bcde ^GABc | ABcd F^GAB | ^GABE GBed | %203
 c2 A2 a2 e2 | c2{B} A2 e2 e2 | e2 d^c de =f2- | f2 B2 B2 dc | d2 cB cd e2 | e2 A2 A2 B/c/d | %209
{d} c3 B PB3 A | A2 a4 g2- | g2 fe ^d2 B2 | g4 f4 | e6 d^c | B2 b4 a2- | a2 ^gf ^e2 ^c2 | a4 ^g4 | %217
 f4 e4 | d6 ^cB | ^A2 ^c2 F2 !turn!A2 | B2 fe d2 B2 | b2 f2 d2{^c} B2 | gfga gfed | ^cded cBAG | %224
 fefg fed^c | B^cde fg ^A2 | B3 ^c P^A3 B | B2 f2 d2 B2 | z2 a2 f2 ^d2 | z2 c'2 a2 f2 | %230
 ^defg ac'ba | g2 z2 z2 B2 | G2 E2 z2 d2 | B2 ^G2 z2 =f2 | d2 B2 ^G3 A | A2 e2 ^c2 A2 | %236
 z2 g2 e2 ^c2 | z2 _b2 g2 e2 | ^cdef g_bag | f2 z2 z2 A2 | F2 D2 z2 c2 | A2 F2 z2 _e2 | %242
 c2 A2 FAdc | B2 G2 g2 d2 | B2 AG d2 d2 | d2 cB cd e2 | e2 A2 A2 c2- | c2 BA Bc d2 | %248
 d2 G2 G2 =f2- | f2 e4 d2- | d2 cB AGAB | cGAB cde=f | gag=f edcB | A2 ag =fedc | BAGA BcdB | %255
 g2 G2 G2 B2 | c4 z2 e2 | defg cdef | BcdB GFGA | D2 EF GABc | dedc BAGF | E2 ed cBAG | FEDE FGAF | %263
 d2 D2 D2 F2 | G4 z2 B2 | AB^cd GABc | F2 f4 e2- | e2 de P^c3 d | dfed afed | c_edc af=ed | %270
 c'bag fede | fgab c'bc'a | b2 D2 G2 B2 | d2 G2 B2 d2- | d2 ^G2 E2 G2 | B2 d2 B2 ^G2 | e4 d4 | %277
 c6 BA | G2 g4 f2- | f2 ed ^c2 A2 | f4 e4 | d6 cB | A2 a4 g2- | g2 fe ^d2 B2 | g4 f4 | e4 d4- | %286
 d2 cB c4- | cBAB cedc | Bcde GABc | ABcd FGAB | GABc EFGA | FGAD FA d2 | Td8- | d8- | d4 c4- | %295
 cDFA cedc | BGFG g2 d2 | TB2{A} G2 d2 d2 | d2 cB cd e2 | e2 A2 A2 c2- | c2 BA Bc d2 | %301
 d2 G2 G2 c2 | B3 A A3 G | !fermata!G8 |] %304
V:3
 G,,B,,D, G,B,D G,B,,D, G,,B,,G,, | D,DC B,/A,/C/B,/A,/G,/ CA,E, F,G,E, | %2
 A,F,D, G,B,A, B,CG, D2 z | D,,F,,A,, D,F,A, DF,A, D,F,D, | A,,A,G, F,E,D, G,E,B,, ^C,D,B,, | %5
 E,^C,A,, D,F,E, F,G,D, A,A,,G,, | F,,^G,,^A,, B,,^C,^D, E,2 z ^E,2 z | %7
 F,2 z ^G,2 z ^A,2 z B,A,G, | ^A,F,G, E,F,F,, B,,2 F,/E,/ D,/^C,/B,,^D, | %9
 E,B,/A,/G,/F,/ E,E,,G,, A,,2 E,/D,/ ^C,/B,,/A,,C, | D,A,/G,/F,/E,/ D,D,,F, G,A,B, E,F,G, | %11
 ^C,D,E, A,,B,,C, D,F,,G,, A,,G,,A,, | D,,F,,A,, D,F,D, G,B,,D, G,,B,,G,, | %13
 D,DC B,/A,/C/B,/A,/G,/ CA,E, F,G,E, | A,F,D, G,B,A, B,CA, D2 z | %15
 G,,B,,D, G,B,D G,B,,D, G,,B,,G,, | D,DC B,A,G, CA,E, F,G,E, | A,F,D, G,,B,,A,, B,,C,A,, D,2 C, | %18
 B,,^C,^D, E,F,^G, A,2 z ^A,2 z | B,2 z ^C2 z ^D2 z EDC | ^DB,C A,B,B,, E,,2 B,/A,/ G,/F,/E,^G, | %21
 A,E,/D,/C,/B,,/ A,,2 C, D,,2 A,/G,/ F,/E,/D,F, | G,D,/C,/B,,/A,,/ G,,A,,B,, C,D,E, A,,B,,C, | %23
 F,,G,,A,, D,,E,,F,, G,,B,,C, D,C,D, | G,,2 z z2 z =F,,2 z z2 z | E,,2 z z2 z _E,,2 z z2 z | %26
 D,,3 z3 ^C,,6 | D,,12 | z12 ||[M:3/4] G,,2 B,,2 G,,2 | D,2 F,2 D,2 | G,2 z B, G,B, | CB, CD EE, | %33
 D,A,/G,/ F,E, F,D, | A,G,/F,/ E,A,, ^C,A,, | D,2 z2 D,,2 | A,,2 z2 E,,2 | A,G, F,E, F,D, | %38
 G,A, G,F, E,D, | E,B,, E,F, G,E, | A,,B,, ^C,B,, A,,G,, | F,,E,, D,,G,, A,,/G,,/A,, | %42
 D,,2 z D,/^C,/ B,,A,, | G,,A,,/B,,/ ^C,/D,/E,/D,/ C,A,, | D,D,, z F,/E,/ D,F, | %45
 A,C/B,/ A,/G,/F,/E,/ D,/C,/B,,/A,,/ | G,,2 z G,/A,/ B,G, | DD, z D,/E,/ F,D, | %48
 G,G,, z B,,/A,,/ G,,B,, | D,=F,/E,/ D,/C,/B,,/A,,/ G,,/=F,,/E,,/D,,/ | C,,C/B,/ CC CC | %51
 CB,/A,/ B,B, B,B, | B,A,/G,/ A,D, G,A, | B,B,, E,F, G,G,, | C,E,/D,/ E,C, D,E, | %55
 F,D, B,,C, D,B,, | E,A,/G,/ F,/G,/D/C/ B,/A,/D, | CC,/B,,/ C,A,, D,D,, | G,,2 z2 G,,2 | %59
 C,2 z2 A,,2 | D,F, G,C, D,D,, | G,,B,/A,/ G,/F,/E,- E,^G, | A,/B,/A,/G,/ F,D,- D,E,/F,/ | %63
 G,/A,/G,/F,/ E,/D,/^C,- C,^D,/E,/ | F,/G,/F,/E,/ ^D,B,, ^C,D, | E,E,, z/ B,,/^C,/^D,/ E,/F,/G, | %66
 PG,F, F,^D,/E,/ F,/G,/A, | PA,G, G,B, A,/G,/F,/E,/ | CE/D/ CB, A,/G,/F,/E,/ | %69
 F,/E,/^D,/^C,/ B,,D, E,G, | C,B,, A,,G,,/A,,/ B,,B,,, | E,,2 z B,, E,D, | E,2 z G,/F,/ G,E, | %73
 F,F,, F,4- | F,^G, ^A,^C F,A, | D,^C, B,,E, F,F,, | B,,B,/A,/ G,E, F,^G, | %77
 A,/B,/A,/G,/ F,D, E,F, | G,G,, z/ F,/G,/A,/ B,B,, | E,/D,/^C,/B,,/ A,,E, A,A,, | %80
 D,,F,/E,/ D,^C, B,,A,, | G,,G,/F,/ G,G, G,G, | G,F,/E,/ F,F, F,F, | F,E,/D,/ E,A,, D,E, | %84
 F,F,, B,,^C, D,D,, | G,,F,, E,,G,, A,,B,, | ^C,,^C, F,E,/D,/ E,^A,, | %87
 B,,E,/D,/ ^C,/E,/A,/G,/ F,/E,/D, | G,G,,/F,,/ G,,E,, A,,A,,, | D,,2 z2 D,2 | G,2 z2 E,2 | %91
 A,^C, D,G, A,A,, | D,,2 z D, G,/A,/B, | PB,A, A,F,/G,/ A,/B,/C | PCB, B,G,/F,/ E,D, | %95
 C,/D,/E,/C,/ D,C, B,,A,, | G,,2 z2 G,,2 | C,2 z2 ^G,,2 | A,,2 z2 F,,2 | B,,2 z2 B,,2 | %100
 E,2 z2 E,,2 | A,,2 z2 A,,2 | D,2 z2 D,,2 | G,,2 z2 G,,2 | C,2 z/ C/B,/A,/ G,G,, | %105
 D,2 z/ D,/C,/B,,/ A,,D, | G,,2 B,,2 G,,2 | D,2 z D,/E,/ F,D, | G,2 z2 G,,2 | C,2 z2 A,,2 | %110
 D,2 z F,/E,/ D,/^C,/B,,/A,,/ | G,,G, ^C,A,,/B,,/ C,A,, | D,2 z2 D,,2 | G,,2 z D/C/ B,/A,/^G,/F,/ | %114
 ^G,E,/F,/ G,B, EG, | A,A,, A,B, CA, | F,D,/E,/ F,A, DF, | G,G,, G,A, B,G, | %118
 E,/G,/F,/G,/ E,/G,/D,/G,/ C,/G,/B,,/G,/ | C,/E,/D,/E,/ C,/E,/B,,/E,/ A,,/E,/G,,/E,/ | %120
 A,,/C,/B,,/C,/ A,,/C,/G,,/C,/ F,,/C,/E,,/C,/ | D,,4 z/ C,/B,,/A,,/ | %122
 B,,/A,,/G,,/F,,/ G,,/A,,/B,,/A,,/ G,,/F,,/E,,/D,,/ | C,,/G,,/C,/D,/ C,/B,,/A,,/G,,/ F,,D,, | %124
 G,,/D,/E,/F,/ G,B, E,G, | C,C F,A, D,F, | D,E, G,,D, z/ G,,/A,,/B,,/ | C,C,, z/ E,/F,/G,/ A,G, | %128
 F,/A,/^G,- G,B,/A,/ G,/F,/E,/D,/ | C,E, A,,A,/G,/ F,/E,/D,/C,/ | B,,D, G,,G, A,B, | %131
 CE, F,^G, A,C, | D,E, F,D, E,F, | G,,G, CB,/A,/ E,C, | A,/G,/F,/E,/ D,B,, E,D, | %135
 C,/B,,/C,/A,,/ D,2 D,,2 | G,,2 z2 G,,2 | C,,2 z C, F,,A,, | D,,D,/C,/ G,,G, z/ G,,/A,,/B,,/ | %139
 C,/D,/E,/D,/ C,B,, A,,B,,/C,/ | D,B,, E,C, D,D,, | !fermata!G,,6 | z6 | %143
[M:4/4] E,E,,E,E,, E,E,,E,E,, | E,E,,E,E,, E,E,,E,E,, | D,D,,D,D,, ^C,^C,,C,C,, | %146
 ^C,^C,,C,C,, C,C,,C,C,, | ^C,^C,,C,C,, =C,=C,,C,C,, | B,,B,,,B,,B,,, _B,,_B,,,B,,B,,, | %149
 A,,A,,,A,,A,,, A,,A,,,A,,A,,, | D,,D,D,,D, D,,D,C,,D, | D,,D,D,,D, D,,D,D,,D, | %152
 C,,C,C,,C, B,,,B,,B,,,B,, | B,,,B,,B,,,B,, B,,,B,,B,,,B,, | B,,,B,,B,,,B,, B,,,B,,B,,,B,, | %155
 E,CE,C D,B,D,B, | C,A,C,A, B,,G,B,,G, | A,,F,A,,F, G,,G,G,,G, | C,^G,B,,G, A,E,ED, | %159
 ^C,^A, G,E, G,C, F,F,, | !fermata!B,,8 |[M:2/2] z8 | z2 G,,A,, B,,2 D,2 | G,F,G,A, B,A,G,F, | %164
 E,4 z2 C,2 | F,,2 F,G, B,A,G,F, | D,4 z2 B,,2 | E,,2 E,F, G,F,E,D, | ^C,2 D,2 G,2 C,2 | %169
 F,2 B,,2 E,2 A,,2 | B,,2 A,,G,, F,,G,,F,,E,, | D,,4 z2 F,,2 | G,,F,,G,,A,, B,,2 G,,2 | %173
 A,,4 z2 ^C,2 | D,E,F,G, A,B,A,G, | F,G,F,E, D,^C,B,,A,, | G,,2 E,2 F,,2 D,2 | E,,2 C,2 D,,2 D,C, | %178
 B,,2 G,,2 G,2 D,2 | B,,2{A,,} G,,2 D,2 D,2 | D,2 C,B,, C,D, E,2 | E,2 A,,2 A,,2 C,2- | %182
 C,2 B,,A,, B,,C, D,2 | D,2 G,,2 G,,2 G,2- | G,2 F,4 E,2- | E,2 D,^C, B,,A,,B,,C, | %186
 D,E,F,G, A,2 A,,2 | D,4 z4 | D,4 z4 | ^D,4 z4 | z2 B,2 ^D,2 B,,2 | E,4 z4 | ^G,4 z4 | B,4 z4 | %194
 z2 E2 ^G,2 E,2 | A,2 A,,2 C,2 A,,2 | z2 E,2 ^G,2 E,2 | z2 A,2 C2 A,2 | E3 D CB,A,^G, | %199
 A,2 B,2 C2 A,2 | ^G,2 F,2 E,2 G,2 | F,2 A,2 B,2 B,,2 | E,4 z2 E,,2 | A,,2 C,B,, A,,2 C,B,, | %204
 A,,2 C,B,, A,,B,,C,B,, | D,4 z2 D,,2 | G,,4 z2 G,,2 | C,4 z2 C,2 | =F,4 z D,C,B,, | %209
 A,,2 D,2 E,2 E,,2 | A,,B,,C,D, E,B,,E,D, | C,B,,C,A,, B,,^C,^D,B,, | E,F,G,A, B,^CB,A, | %213
 G,F,G,E, F,^G,^A,F, | B,,^C,D,E, F,G,F,E, | D,^C,D,B,, C,^D,^E,C, | F,^G,A,B, ^CDCB, | %217
 ^A,F,B,=A, ^G,F,G,^A, | B,A,G,F, E,F,G,E, | F,2 E,2 D,2 ^C,2 | B,,2 D,^C, B,,2 D,C, | %221
 B,,2 D,^C, B,,C,D,C, | E,4 z2 E,,2 | A,,4 z2 A,,2 | D,4 z2 D,2 | G,2 F,E, D,2 ^C,2 | %226
 B,,2 E,2 F,2 F,,2 | B,,D,^C,B,, F,E,D,C, | B,,F,E,^D, A,G,F,E, | ^D,A,G,F, CB,A,G, | %230
 F,E,^D,^C, B,,A,,G,,F,, | E,,G,F,E, B,A,G,F, | E,B,A,^G, DCB,A, | ^G,B,A,G, =FEDC | %234
 B,A,^G,F, E,D,C,B,, | A,,^C,B,,A,, E,D,C,B,, | A,,E,D,^C, G,F,E,D, | ^C,E,D,C, _B,A,G,F, | %238
 E,D,^C,B,, A,,G,,F,,E,, | D,,F,E,D, A,G,F,E, | D,A,G,F, CB,A,G, | F,CB,A, _EDCB, | %242
 A,G,F,E, D,C,B,,A,, | G,,2 G,A, B,2 G,2 | z2 G,,A,, B,,C,D,B,, | C,2 G,,2 A,,2 C,2 | D,4 z2 F,,2 | %247
 G,,A,,B,,C, D,E,D,C, | B,,C,B,,A,, G,,=F,,E,,D,, | C,,C,D,E, =F,E,F,G, | A,2 E,2 =F,2 G,2 | %251
 A,,2 G,,=F,, E,,F,,E,,D,, | C,,4 z2 E,,2 | =F,,E,,F,,G,, A,,2 F,,2 | G,,4 z2 B,,2 | %255
 C,D,E,=F, G,A,G,F, | E,=F,E,D, C,B,,A,,G,, | F,,2 D,2 E,,2 C,2 | D,,2 B,,2 C,,2 C,2 | %259
 B,,2 G,,2 G,2 D,2 | B,,2{A,,} G,,2 D,2 D,2 | D,2 C,B,, C,D, E,2 | E,2 A,,2 A,,2 C,B,, | %263
 C,2 B,,A,, B,,C, D,2 | D,2 G,,2 G,,2 G,2- | G,2 F,4 E,2- | E,2 D,^C, B,,A,,B,,C, | %267
 D,E,F,G, A,2 A,,2 | D,4 z4 | F,4 z4 | A,4 z4 | z2 D2 F,2 D,2 | G,4 z4 | G,,4 z4 | ^G,,4 z4 | %275
 z2 E,2 ^G,,2 E,,2 | A,,E,A,G, F,A,G,F, | E,D,E,C, D,E,F,D, | G,A,B,C DED^C | B,A,B,G, A,B,^CA, | %280
 D,E,F,G, A,B,A,G, | =F,E,F,D, E,^F,^G,E, | A,B,CD EB,ED | CB,CA, B,^C^DB, | E,F,G,A, B,CB,A, | %285
 ^G,E,A,=G, F,D,G,F, | E,2 D,2 E,2 C,2 | D,2 C,2 B,,2 A,,2 | G,,2 B,,2 D,2 G,2 | F,2 E,2 D,2 C,2 | %290
 B,,2 D,2 G,2 G,,2 | D,,2 D,C, B,,2 A,,2 | G,,2 B,,2 E,,2 G,,2 | F,,2 A,,2 D,,2 F,,2 | %294
 E,,2 G,,2 A,,2 A,,,2 | D,,2 D,C, B,,2 A,,2 | G,,2 B,,A,, G,,2 B,,A,, | G,,2 B,,A,, G,,A,,B,,A,, | %298
 C,4 z2 C,2 | F,,4 z2 F,,2 | B,,4 z2 B,,2 | E,,4 z C,B,,A,, | G,,A,,B,,C, D,2 D,,2 | %303
 !fermata!G,,8 |] %304

